!!!OTL: DES LEBENS BLUME BLUEHET SCHON
!!!ARE: Europa, Mitteleuropa, Deutschland
!!!SCT: F0774
!!!YEM: Copyright 1995, estate of Helmut Schaffrath.
**kern
*ICvox
*Ivox
*M6/8
*k[b-e-]
*B-:
{8f
=1
4b-
8f
4dd
8b-
=2
4a
8cc
4ee-}
{8cc
=3
8b-
8ff
8dd
8cc
8gg
8ee-
=4
4.dd
4cc}
{8ff
=5
8ee-
8dd
8cc
8b-
8a
8g
=6
8f
8g
8a
4b-}
{8cc
=7
4.dd
8dd
8een
8ff
=8
4.f
4g
8f
=9
2f
8r}
{8f
=10
4ee-
8cc
8a
8cc
8f
=11
[4.ff
4ff]}
{8ee-
=12
8dd
8cc
8b-
8b-
8cc
8a
=13
[4.b-
4b-]}
{8f
=14
4cc
8cc
4cc
8dd
=15
4ee-
8dd
4cc}
{8ff
=16
4ff
8b-
8b-
8cc
8a
=17
2b-
8r}
==
!!!AGN: Geselligkeits -, Moral - Lied
!!!ONB: ESAC (Essen Associative Code) Database: FINK
!!!AMT: compound duple
!!!AIN: vox
!!!EED: Helmut Schaffrath
!!!EEV: 1.0
*-
